icons/volume.svg

<?xml version="1.0" encoding="UTF-8" standalone="no"?>
<svg
   xmlns:dc="http://purl.org/dc/elements/1.1/"
   xmlns:cc="http://creativecommons.org/ns#"
   xmlns:rdf="http://www.w3.org/1999/02/22-rdf-syntax-ns#"
   xmlns:svg="http://www.w3.org/2000/svg"
   xmlns="http://www.w3.org/2000/svg"
   xmlns:sodipodi="http://sodipodi.sourceforge.net/DTD/sodipodi-0.dtd"
   xmlns:inkscape="http://www.inkscape.org/namespaces/inkscape"
   width="24"
   height="24"
   viewBox="0 0 24 24"
   fill="none"
   stroke="currentColor"
   stroke-width="2"
   stroke-linecap="round"
   stroke-linejoin="round"
   class="feather feather-alert-circle"
   version="1.1"
   id="svg854"
   sodipodi:docname="volume.svg"
   inkscape:version="0.92.3 (2405546, 2018-03-11)">
  <metadata
     id="metadata860">
    <rdf:RDF>
      <cc:Work
         rdf:about="">
        <dc:format>image/svg+xml</dc:format>
        <dc:type
           rdf:resource="http://purl.org/dc/dcmitype/StillImage" />
        <dc:title></dc:title>
      </cc:Work>
    </rdf:RDF>
  </metadata>
  <defs
     id="defs858" />
  <sodipodi:namedview
     pagecolor="#ffffff"
     bordercolor="#666666"
     borderopacity="1"
     objecttolerance="10"
     gridtolerance="10"
     guidetolerance="10"
     inkscape:pageopacity="0"
     inkscape:pageshadow="2"
     inkscape:window-width="1920"
     inkscape:window-height="1016"
     id="namedview856"
     showgrid="false"
     inkscape:zoom="24.24787"
     inkscape:cx="11.194447"
     inkscape:cy="13.270782"
     inkscape:window-x="0"
     inkscape:window-y="27"
     inkscape:window-maximized="1"
     inkscape:current-layer="svg854" />
  <path
     style="fill:none;stroke:#000000;stroke-width:1.99937008;stroke-linecap:round;stroke-linejoin:round;stroke-miterlimit:4;stroke-dasharray:none;stroke-opacity:1"
     d="M 17.613135,2.4475584 1.4271954,2.4974408 4.4698041,8.2852993 4.5148903,21.552562 H 17.658221 Z"
     id="path954"
     inkscape:connector-curvature="0"
     sodipodi:nodetypes="cccccc" />
  <path
     style="fill:none;stroke:#000000;stroke-width:1.99937008;stroke-linecap:round;stroke-linejoin:round;stroke-miterlimit:4;stroke-dasharray:none;stroke-opacity:1"
     d="m 17.613135,2.4475584 h 4.95948 v 7.3327295"
     id="path956"
     inkscape:connector-curvature="0" />
  <path
     style="fill:none;stroke:#000000;stroke-width:2.29912567;stroke-linecap:round;stroke-linejoin:miter;stroke-miterlimit:4;stroke-dasharray:none;stroke-opacity:1"
     d="M 16.981928,8.5332256 H 11.526499"
     id="path958"
     inkscape:connector-curvature="0" />
  <path
     style="fill:none;stroke:#000000;stroke-width:1.99937008;stroke-linecap:round;stroke-linejoin:miter;stroke-miterlimit:4;stroke-dasharray:none;stroke-opacity:1"
     d="M 16.824127,15.417013 H 11.368698"
     id="path958-9"
     inkscape:connector-curvature="0" />
  <path
     style="fill:none;stroke:#000000;stroke-width:1.74021494;stroke-linecap:round;stroke-linejoin:miter;stroke-miterlimit:4;stroke-dasharray:none;stroke-opacity:1"
     d="M 17.69018,11.875355 H 14.564754"
     id="path958-3"
     inkscape:connector-curvature="0" />
  <path
     style="fill:none;stroke:#000000;stroke-width:1.74021494;stroke-linecap:round;stroke-linejoin:miter;stroke-miterlimit:4;stroke-dasharray:none;stroke-opacity:1"
     d="M 17.620904,18.600853 H 14.495478"
     id="path958-3-6"
     inkscape:connector-curvature="0" />
</svg>

<svg class="feather feather-alert-circle" width="24" height="24" fill="none" stroke="currentColor" stroke-linecap="round" stroke-linejoin="round" stroke-width="2" version="1.1" viewBox="0 0 24 24" xmlns="http://www.w3.org/2000/svg">
 <g fill="none" stroke="#000" stroke-linecap="round">
  <path d="m17.613 2.4476-16.186 0.049882 3.0426 5.7879 0.045086 13.267h13.143z" stroke-linejoin="round" stroke-width="1.9994"/>
  <path d="m17.613 2.4476h4.9595v7.3327" stroke-linejoin="round" stroke-width="1.9994"/>
  <g stroke-linejoin="miter">
   <path d="m16.982 8.5332h-5.4554" stroke-width="2.2991"/>
   <path d="m16.824 15.417h-5.4554" stroke-width="1.9994"/>
   <path d="m17.69 11.875h-3.1254" stroke-width="1.7402"/>
   <path d="m17.621 18.601h-3.1254" stroke-width="1.7402"/>
  </g>
 </g>
</svg>
